X:1
T:Title
%%score [ ( 1 2 ) ( 3 4 ) ]
L:1/8
Q:1/4=100
M:4/4
K:G
V:1 treble nm="Midi_20" snm=" "
V:2 treble 
V:3 bass nm="Midi_20"
V:4 bass 
V:1
"^Sweet is the solemn voice that calls""^Samuel Wesley\n(1766-1837)""^Henry  Francis Lyte\n(1793-1847)""^Hieropolis (L.M.)" G2 | %1
 B2 A2 G2 G2 | A2 A2 B2 B2 | A2 G2 c2 B2 | A2 G2 F4 ||[M:4/4] A2 | A2 B2 c2 =G2 | G2 A2 B2 d2 | %8
 c2 B2 e2 A2 | B2 A2 G4 |] %10
V:2
 D2 | G2 F2 E2 D2 | E2 D2 D2 G2 | F2 E2 E2 G2 | E2 E2 F4 ||[M:4/4] =F2 | E2 ^G2 A2 E2 | %7
 D2 EF G2 D2 | F2 G2 G2 G2 | G2 F2 G4 |] %10
V:3
 B,2 | D2 C2 B,2 G,2 | G,2 F,2 G,2 D2 | D2 B,2 C2 D2 | E2 B,2 A,4 || %5
[M:4/4]"^1. Sweet is the solemn voice that calls\nthe Christian to the house of prayer;\nI love to stand within its walls,\nFor thou, O Lord, art present there.\n\n2. I love to tread the hallowed courts\nWhere two or three for worship meet,\nFor thither Christ himself resorts,\nAnd makes the little band complete." D2 | %6
 A,2 D2 E2 C2 | %7
 G,2 C2"^3. 'Tis sweet to raise the common song,\nTo join in holy praise and love\nAnd imitate the blessed throng\nThat mingle hearts and songs above.\n\n4. Within these wallsmay peace abound;\nMay all our hearts in one agree;\nWhere brethren meet, where Christ is found,\nMay peace and concord ever be." D2 G,2 | %8
 A,2 B,2 A,2 E2 | D2 C2 B,4 |] %10
V:4
 G,2 | G,2 D,2 E,2 B,,2 | C,2 D,2 G,,2 G,2 | D,2 E,2 A,,2 B,,2 | C,2 ^C,2 D,4 ||[M:4/4] D,2 | %6
 C,2 B,,2 A,,2 C,2 | B,,2 A,,2 G,,2 B,,2 | A,,2 G,,2 C,2 C,2 | D,2 D,2 G,,4 |] %10

